packages/webapp/public/images/template-logos/contentstack.svg

<svg width="62" height="62" viewBox="0 0 62 62" fill="none" xmlns="http://www.w3.org/2000/svg">
<g clip-path="url(#clip0_496_972)">
<path d="M40.0364 27.9091C40.0364 28.3091 39.7818 28.5637 39.3818 28.5637H26.7636C26.3636 28.5637 26.1091 28.3091 26.1091 27.9091V26.4546C26.1091 26.0546 26.3636 25.8001 26.7636 25.8001H39.3818C39.7818 25.8001 40.0364 26.0546 40.0364 26.4546V27.9091ZM45.6364 31.9819C45.6364 32.3819 45.3818 32.6364 44.9818 32.6364H29.4182C29.0182 32.6364 28.7636 32.3819 28.7636 31.9819V30.5273C28.7636 30.1273 29.0182 29.8728 29.4182 29.8728H44.8364C45.2364 29.8728 45.4909 30.1273 45.4909 30.5273L45.6364 31.9819ZM49.8909 36.2364C49.8909 36.6364 49.6364 36.891 49.2364 36.891H32.3636C31.9636 36.891 31.7091 36.6364 31.7091 36.2364V34.7819C31.7091 34.3819 31.9636 34.1273 32.3636 34.1273H49.2364C49.6364 34.1273 49.8909 34.3819 49.8909 34.7819V36.2364ZM49.8909 40.4546C49.8909 40.8546 49.6364 41.1091 49.2364 41.1091H32.3636C31.9636 41.1091 31.7091 40.8546 31.7091 40.4546V39.0001C31.7091 38.6001 31.9636 38.3455 32.3636 38.3455H49.2364C49.6364 38.3455 49.8909 38.6001 49.8909 39.0001V40.4546ZM45.6364 44.5273C45.6364 44.9273 45.3818 45.1819 44.9818 45.1819H29.4182C29.0182 45.1819 28.7636 44.9273 28.7636 44.5273V43.0728C28.7636 42.6728 29.0182 42.4182 29.4182 42.4182H44.8364C45.2364 42.4182 45.4909 42.6728 45.4909 43.0728L45.6364 44.5273ZM40.0364 48.7455C40.0364 49.1455 39.7818 49.4001 39.3818 49.4001H26.7636C26.3636 49.4001 26.1091 49.1455 26.1091 48.7455V47.291C26.1091 46.891 26.3636 46.6364 26.7636 46.6364H39.3818C39.7818 46.6364 40.0364 46.891 40.0364 47.291V48.7455ZM16.1455 15.2546C16.1455 15.6546 16.4 15.9091 16.8 15.9091H29.4182C29.8182 15.9091 30.0727 15.6546 30.0727 15.2546V13.8001C30.0727 13.4001 29.8182 13.1455 29.4182 13.1455H16.8C16.4 13.1455 16.1455 13.4001 16.1455 13.8001V15.2546ZM10.5455 19.4728C10.5455 19.8728 10.8 20.1273 11.2 20.1273H26.6182C27.0182 20.1273 27.2727 19.8728 27.2727 19.4728V18.0182C27.2727 17.6182 27.0182 17.3637 26.6182 17.3637H11.2C10.8 17.3637 10.5455 17.6182 10.5455 18.0182V19.4728ZM6.29091 23.691C6.29091 24.091 6.54546 24.3455 6.94546 24.3455H23.8182C24.2182 24.3455 24.4727 24.091 24.4727 23.691V22.2364C24.4727 21.8364 24.2182 21.5819 23.8182 21.5819H6.94546C6.54546 21.5819 6.29091 21.8364 6.29091 22.2364V23.691ZM6.29091 27.9091C6.29091 28.3091 6.54546 28.5637 6.94546 28.5637H23.8182C24.2182 28.5637 24.4727 28.3091 24.4727 27.9091V26.4546C24.4727 26.0546 24.2182 25.8001 23.8182 25.8001H6.94546C6.54546 25.8001 6.29091 26.0546 6.29091 26.4546V27.9091ZM10.5455 31.9819C10.5455 32.3819 10.8 32.6364 11.2 32.6364H26.6182C27.0182 32.6364 27.2727 32.3819 27.2727 31.9819V30.5273C27.2727 30.1273 27.0182 29.8728 26.6182 29.8728H11.2C10.8 29.8728 10.5455 30.1273 10.5455 30.5273V31.9819ZM16.1455 36.2364C16.1455 36.6364 16.4 36.891 16.8 36.891H29.4182C29.8182 36.891 30.0727 36.6364 30.0727 36.2364V34.7819C30.0727 34.3819 29.8182 34.1273 29.4182 34.1273H16.8C16.4 34.1273 16.1455 34.3819 16.1455 34.7819V36.2364Z" fill="#F0553D"/>
</g>
<defs>
<clipPath id="clip0_496_972">
<rect width="44" height="36.7273" fill="white" transform="translate(6 13)"/>
</clipPath>
</defs>
</svg>

<svg xmlns="http://www.w3.org/2000/svg" width="62" height="62" fill="none"><g clip-path="url(#A)"><path d="M40.036 27.909c0 .4-.255.655-.654.655H26.764c-.4 0-.654-.255-.654-.655v-1.454c0-.4.255-.654.654-.654h12.618c.4 0 .654.255.654.654v1.454zm5.6 4.073c0 .4-.255.655-.654.655H29.418c-.4 0-.655-.255-.655-.655v-1.455c0-.4.255-.654.655-.654h15.418c.4 0 .655.255.655.654l.145 1.455zm4.255 4.255c0 .4-.255.655-.655.655H32.364c-.4 0-.654-.255-.654-.655v-1.455c0-.4.255-.655.654-.655h16.873c.4 0 .655.255.655.655v1.455zm0 4.218c0 .4-.255.654-.655.654H32.364c-.4 0-.654-.255-.654-.654V39c0-.4.255-.655.654-.655h16.873c.4 0 .655.255.655.655v1.454zm-4.255 4.073c0 .4-.255.655-.654.655H29.418c-.4 0-.655-.255-.655-.655v-1.454c0-.4.255-.655.655-.655h15.418c.4 0 .655.255.655.655l.145 1.454zm-5.6 4.218c0 .4-.255.655-.654.655H26.764c-.4 0-.654-.255-.654-.655v-1.455c0-.4.255-.655.654-.655h12.618c.4 0 .654.255.654.655v1.455zM16.145 15.255c0 .4.255.655.655.655h12.618c.4 0 .655-.255.655-.655V13.8c0-.4-.255-.655-.655-.655H16.8c-.4 0-.655.255-.655.655v1.454zm-5.6 4.218c0 .4.255.655.655.655h15.418c.4 0 .654-.255.654-.655v-1.455c0-.4-.255-.654-.654-.654H11.2c-.4 0-.655.255-.655.654v1.455zm-4.255 4.218c0 .4.255.655.655.655h16.873c.4 0 .654-.255.654-.655v-1.455c0-.4-.255-.654-.654-.654H6.945c-.4 0-.655.255-.655.654v1.455zm0 4.218c0 .4.255.655.655.655h16.873c.4 0 .654-.255.654-.655v-1.454c0-.4-.255-.654-.654-.654H6.945c-.4 0-.655.255-.655.654v1.454zm4.255 4.073c0 .4.255.655.655.655h15.418c.4 0 .654-.255.654-.655v-1.455c0-.4-.255-.654-.654-.654H11.2c-.4 0-.655.255-.655.654v1.455zm5.6 4.255c0 .4.255.655.655.655h12.618c.4 0 .655-.255.655-.655v-1.455c0-.4-.255-.655-.655-.655H16.8c-.4 0-.655.255-.655.655v1.455z" fill="#f0553d"/></g><defs><clipPath id="A"><path fill="#fff" transform="translate(6 13)" d="M0 0h44v36.727H0z"/></clipPath></defs></svg>
